design-library/src/public/images/icons/icn_screen_athens.svg

<svg xmlns="http://www.w3.org/2000/svg" width="24" height="24" viewBox="0 0 24 24"><path d="M0 0h24v24H0z" fill="none"/><path fill="#142680" d="M21 3H3c-1.1 0-2 .9-2 2v12c0 1.1.9 2 2 2h5v2h8v-2h5c1.1 0 1.99-.9 1.99-2L23 5c0-1.1-.9-2-2-2zm0 14H3V5h18v12z"/></svg>

<?xml version="1.0" encoding="UTF-8"?>
<svg width="24px" height="24px" viewBox="0 0 24 24" version="1.1" xmlns="http://www.w3.org/2000/svg" xmlns:xlink="http://www.w3.org/1999/xlink">
    <!-- Generator: Sketch 57.1 (83088) - https://sketch.com -->
    <title>Screen</title>
    <desc>Created with Sketch.</desc>
    <g id="Screen" stroke="none" stroke-width="1" fill="none" fill-rule="evenodd">
        <g id="baseline-personal_video-24px">
            <path d="M21,3 L3,3 C1.89,3 1,3.89 1,5 L1,17 C1,18.1 1.89,19 3,19 L8,19 L8,21 L16,21 L16,19 L21,19 C22.1,19 22.99,18.1 22.99,17 L23,5 C23,3.89 22.1,3 21,3 Z M21,17 L3,17 L3,5 L21,5 L21,17 Z" id="Shape" fill="#142680" fill-rule="nonzero"></path>
            <polygon id="Shape" points="0 0 24 0 24 24 0 24"></polygon>
        </g>
    </g>
</svg>
